X:237
T:score4
L:1/8
Q:1/4=96
M:4/4
I:linebreak $
K:Db
 (f>d A4 B2 | c6 d2 | e>f g4 f2 |$ f3 e d2) (7:2:7(efe=defg | f>d A4 B2 | c6 d2 |$ e>f g4 f2 | %7
 f3 e d4) |] %8
